img/bot-illustration.svg

<svg width="224" height="130" viewBox="0 0 224 130" fill="none" xmlns="http://www.w3.org/2000/svg">
<g clip-path="url(#clip0)">
<path d="M13.4549 121.797C13.1865 121.802 12.9269 121.894 12.7141 122.057C12.0827 120.389 11.1053 119.316 10.0072 119.316C8.90912 119.316 7.9317 120.389 7.30032 122.057C7.08757 121.894 6.82796 121.802 6.55951 121.797C5.31199 121.797 4.30067 123.907 4.30067 126.509H15.7138C15.7138 123.907 14.7024 121.797 13.4549 121.797Z" fill="#00BAFC"/>
<path d="M58.8028 126.246H0.93692V126.772H58.8028V126.246Z" fill="#3F3D56"/>
<path d="M219.142 110.743C218.874 110.748 218.614 110.84 218.401 111.003C217.77 109.335 216.792 108.263 215.694 108.263C214.596 108.263 213.619 109.335 212.987 111.003C212.775 110.84 212.515 110.748 212.247 110.743C210.999 110.743 209.988 112.853 209.988 115.455H221.401C221.401 112.853 220.389 110.743 219.142 110.743Z" fill="#00BAFC"/>
<path d="M194.585 24.1599H139.483V23.0242H114.498V24.1599H59.1697C58.6803 24.1599 58.1956 24.2563 57.7434 24.4436C57.2912 24.6309 56.8803 24.9055 56.5342 25.2516C56.1881 25.5977 55.9136 26.0085 55.7263 26.4607C55.5389 26.9129 55.4425 27.3976 55.4425 27.8871V103.338C55.4425 104.326 55.8352 105.274 56.5342 105.973C57.2332 106.672 58.1812 107.065 59.1697 107.065H194.585C195.573 107.065 196.521 106.672 197.22 105.973C197.919 105.274 198.312 104.326 198.312 103.338V27.8871C198.312 27.3976 198.216 26.9129 198.028 26.4607C197.841 26.0085 197.567 25.5977 197.22 25.2516C196.874 24.9055 196.463 24.6309 196.011 24.4436C195.559 24.2563 195.074 24.1599 194.585 24.1599Z" fill="#3F3D56"/>
<path opacity="0.2" d="M193.314 30.7458H60.4407V105.703H193.314V30.7458Z" fill="black"/>
<path d="M126.764 28.7026C127.516 28.7026 128.127 28.0925 128.127 27.3398C128.127 26.5871 127.516 25.977 126.764 25.977C126.011 25.977 125.401 26.5871 125.401 27.3398C125.401 28.0925 126.011 28.7026 126.764 28.7026Z" fill="#00BAFC"/>
<path d="M223.063 114.929H30.2645V115.455H223.063V114.929Z" fill="#3F3D56"/>
<path d="M145.032 58.7512V53.2055C145.032 52.312 144.856 51.4272 144.514 50.6017C144.172 49.7762 143.671 49.0261 143.039 48.3942C142.407 47.7624 141.657 47.2612 140.831 46.9193C140.006 46.5773 139.121 46.4013 138.227 46.4013H132.682C132.682 45.6527 130.276 45.0394 127.219 44.9813V38.2936C128.178 38.1728 129.055 37.691 129.672 36.9464C130.288 36.2017 130.597 35.2502 130.537 34.2855C130.476 33.3208 130.05 32.4154 129.346 31.7536C128.641 31.0919 127.711 30.7235 126.744 30.7235C125.778 30.7235 124.847 31.0919 124.143 31.7536C123.438 32.4154 123.012 33.3208 122.952 34.2855C122.891 35.2502 123.201 36.2017 123.817 36.9464C124.433 37.691 125.31 38.1728 126.269 38.2936V44.9813C123.213 45.0394 120.807 45.6527 120.807 46.4013H114.311C113.418 46.4013 112.533 46.5773 111.707 46.9193C110.882 47.2612 110.132 47.7624 109.5 48.3942C108.868 49.0261 108.367 49.7762 108.025 50.6017C107.683 51.4272 107.507 52.312 107.507 53.2055V58.7512C106.72 58.7512 106.082 61.4094 106.082 64.6886C106.082 67.9678 106.72 70.626 107.507 70.626V77.1216C107.507 78.0152 107.683 78.9 108.025 79.7255C108.367 80.551 108.868 81.3011 109.5 81.9329C110.132 82.5648 110.882 83.066 111.707 83.4079C112.533 83.7499 113.418 83.9259 114.311 83.9259H138.227C139.121 83.9259 140.006 83.7499 140.831 83.4079C141.657 83.066 142.407 82.5648 143.039 81.9329C143.671 81.3011 144.172 80.551 144.514 79.7255C144.856 78.9 145.032 78.0152 145.032 77.1216V70.626C145.819 70.626 146.457 67.9677 146.457 64.6886C146.457 61.4094 145.819 58.7512 145.032 58.7512Z" fill="#00BAFC"/>
<path d="M115.674 48.5388H136.865C138.464 48.5388 139.998 49.174 141.128 50.3047C142.259 51.4353 142.894 52.9688 142.894 54.5678V75.7593C142.894 77.3583 142.259 78.8918 141.128 80.0225C139.998 81.1532 138.464 81.7884 136.865 81.7884H115.674C114.075 81.7884 112.541 81.1532 111.41 80.0225C110.28 78.8918 109.645 77.3583 109.645 75.7593V54.5679C109.645 52.9688 110.28 51.4353 111.41 50.3047C112.541 49.174 114.075 48.5388 115.674 48.5388Z" fill="#3F3D56"/>
<path d="M118.669 64.3324C117.536 64.3311 116.449 63.8803 115.648 63.0788C114.847 62.2774 114.396 61.1908 114.394 60.0574C114.394 59.9944 114.42 59.934 114.464 59.8895C114.509 59.8449 114.569 59.8199 114.632 59.8199C114.695 59.8199 114.755 59.8449 114.8 59.8895C114.844 59.934 114.869 59.9944 114.869 60.0574C114.869 61.0652 115.27 62.0318 115.982 62.7444C116.695 63.457 117.662 63.8574 118.669 63.8574C119.677 63.8574 120.644 63.457 121.356 62.7444C122.069 62.0318 122.469 61.0652 122.469 60.0574C122.469 59.9944 122.494 59.934 122.539 59.8895C122.583 59.8449 122.644 59.8199 122.707 59.8199C122.77 59.8199 122.83 59.8449 122.875 59.8895C122.919 59.934 122.944 59.9944 122.944 60.0574C122.943 61.1908 122.492 62.2774 121.691 63.0788C120.889 63.8803 119.803 64.3311 118.669 64.3324Z" fill="#00BAFC"/>
<path d="M126.269 72.4073C125.388 72.4063 124.543 72.0556 123.919 71.4323C123.296 70.809 122.945 69.9638 122.944 69.0823C122.944 69.0193 122.969 68.9589 123.014 68.9144C123.058 68.8698 123.119 68.8448 123.182 68.8448C123.245 68.8448 123.305 68.8698 123.35 68.9144C123.394 68.9589 123.419 69.0193 123.419 69.0823C123.419 69.8382 123.72 70.5631 124.254 71.0975C124.789 71.632 125.513 71.9323 126.269 71.9323C127.025 71.9323 127.75 71.632 128.285 71.0975C128.819 70.5631 129.119 69.8382 129.119 69.0823C129.119 69.0193 129.144 68.9589 129.189 68.9144C129.233 68.8698 129.294 68.8448 129.357 68.8448C129.42 68.8448 129.48 68.8698 129.525 68.9144C129.569 68.9589 129.594 69.0193 129.594 69.0823C129.593 69.9638 129.243 70.809 128.619 71.4323C127.996 72.0556 127.151 72.4063 126.269 72.4073Z" fill="#00BAFC"/>
<path d="M133.869 64.3324C132.736 64.3311 131.649 63.8803 130.848 63.0788C130.046 62.2774 129.596 61.1908 129.594 60.0574C129.594 59.9944 129.619 59.934 129.664 59.8895C129.708 59.8449 129.769 59.8199 129.832 59.8199C129.895 59.8199 129.955 59.8449 130 59.8895C130.044 59.934 130.069 59.9944 130.069 60.0574C130.069 61.0652 130.47 62.0318 131.182 62.7444C131.895 63.457 132.861 63.8574 133.869 63.8574C134.877 63.8574 135.844 63.457 136.556 62.7444C137.269 62.0318 137.669 61.0652 137.669 60.0574C137.669 59.9944 137.694 59.934 137.739 59.8895C137.783 59.8449 137.844 59.8199 137.907 59.8199C137.97 59.8199 138.03 59.8449 138.075 59.8895C138.119 59.934 138.144 59.9944 138.144 60.0574C138.143 61.1908 137.692 62.2774 136.891 63.0788C136.089 63.8803 135.003 64.3311 133.869 64.3324Z" fill="#00BAFC"/>
<path d="M118.669 62.4324C119.85 62.4324 120.807 61.4754 120.807 60.2949C120.807 59.1144 119.85 58.1574 118.669 58.1574C117.489 58.1574 116.532 59.1144 116.532 60.2949C116.532 61.4754 117.489 62.4324 118.669 62.4324Z" fill="#00BAFC"/>
<path d="M133.869 62.4324C135.05 62.4324 136.007 61.4754 136.007 60.2949C136.007 59.1144 135.05 58.1574 133.869 58.1574C132.689 58.1574 131.732 59.1144 131.732 60.2949C131.732 61.4754 132.689 62.4324 133.869 62.4324Z" fill="#00BAFC"/>
<path d="M126.269 71.2198C127.319 71.2198 128.169 70.7944 128.169 70.2698C128.169 69.7451 127.319 69.3198 126.269 69.3198C125.22 69.3198 124.369 69.7451 124.369 70.2698C124.369 70.7944 125.22 71.2198 126.269 71.2198Z" fill="#00BAFC"/>
<path d="M202.043 104.339H189.075V103.405C189.075 103.381 189.07 103.357 189.061 103.334C189.052 103.312 189.038 103.291 189.021 103.274C189.004 103.257 188.983 103.243 188.961 103.234C188.938 103.225 188.914 103.22 188.89 103.22H184.444C184.419 103.22 184.395 103.225 184.373 103.234C184.35 103.243 184.33 103.257 184.313 103.274C184.296 103.291 184.282 103.312 184.273 103.334C184.263 103.357 184.259 103.381 184.259 103.405V104.339H181.48V103.405C181.48 103.381 181.475 103.357 181.466 103.334C181.456 103.312 181.443 103.291 181.425 103.274C181.408 103.257 181.388 103.243 181.365 103.234C181.343 103.225 181.319 103.22 181.294 103.22H176.848C176.824 103.22 176.8 103.225 176.778 103.234C176.755 103.243 176.735 103.257 176.717 103.274C176.7 103.291 176.687 103.312 176.677 103.334C176.668 103.357 176.663 103.381 176.663 103.405V104.339H173.884V103.405C173.884 103.381 173.88 103.357 173.87 103.334C173.861 103.312 173.847 103.291 173.83 103.274C173.813 103.257 173.792 103.243 173.77 103.234C173.747 103.225 173.723 103.22 173.699 103.22H169.253C169.229 103.22 169.205 103.225 169.182 103.234C169.16 103.243 169.139 103.257 169.122 103.274C169.105 103.291 169.091 103.312 169.082 103.334C169.073 103.357 169.068 103.381 169.068 103.405V104.339H166.289V103.405C166.289 103.381 166.284 103.357 166.275 103.334C166.266 103.312 166.252 103.291 166.235 103.274C166.217 103.257 166.197 103.243 166.175 103.234C166.152 103.225 166.128 103.22 166.104 103.22H161.658C161.633 103.22 161.609 103.225 161.587 103.234C161.564 103.243 161.544 103.257 161.527 103.274C161.509 103.291 161.496 103.312 161.486 103.334C161.477 103.357 161.472 103.381 161.472 103.405V104.339H158.693V103.405C158.693 103.381 158.689 103.357 158.679 103.334C158.67 103.312 158.656 103.291 158.639 103.274C158.622 103.257 158.602 103.243 158.579 103.234C158.557 103.225 158.533 103.22 158.508 103.22H154.062C154.038 103.22 154.014 103.225 153.991 103.234C153.969 103.243 153.948 103.257 153.931 103.274C153.914 103.291 153.9 103.312 153.891 103.334C153.882 103.357 153.877 103.381 153.877 103.405V104.339H151.098V103.405C151.098 103.381 151.093 103.357 151.084 103.334C151.075 103.312 151.061 103.291 151.044 103.274C151.027 103.257 151.006 103.243 150.984 103.234C150.961 103.225 150.937 103.22 150.913 103.22H146.467C146.442 103.22 146.418 103.225 146.396 103.234C146.373 103.243 146.353 103.257 146.336 103.274C146.319 103.291 146.305 103.312 146.296 103.334C146.286 103.357 146.281 103.381 146.281 103.405V104.339H143.503V103.405C143.503 103.381 143.498 103.357 143.489 103.334C143.479 103.312 143.466 103.291 143.448 103.274C143.431 103.257 143.411 103.243 143.388 103.234C143.366 103.225 143.342 103.22 143.317 103.22H108.49C108.465 103.22 108.441 103.225 108.419 103.234C108.396 103.243 108.376 103.257 108.359 103.274C108.341 103.291 108.328 103.312 108.318 103.334C108.309 103.357 108.304 103.381 108.304 103.405V104.339H105.526V103.405C105.526 103.381 105.521 103.357 105.512 103.334C105.502 103.312 105.489 103.291 105.471 103.274C105.454 103.257 105.434 103.243 105.411 103.234C105.389 103.225 105.365 103.22 105.34 103.22H100.894C100.87 103.22 100.846 103.225 100.823 103.234C100.801 103.243 100.78 103.257 100.763 103.274C100.746 103.291 100.732 103.312 100.723 103.334C100.714 103.357 100.709 103.381 100.709 103.405V104.339H97.9302V103.405C97.9302 103.381 97.9254 103.357 97.9161 103.334C97.9068 103.312 97.8931 103.291 97.8759 103.274C97.8587 103.257 97.8383 103.243 97.8158 103.234C97.7933 103.225 97.7692 103.22 97.7449 103.22H93.2988C93.2745 103.22 93.2504 103.225 93.2279 103.234C93.2055 103.243 93.185 103.257 93.1678 103.274C93.1506 103.291 93.137 103.312 93.1277 103.334C93.1184 103.357 93.1136 103.381 93.1136 103.405V104.339H90.3347V103.405C90.3348 103.381 90.33 103.357 90.3207 103.334C90.3113 103.312 90.2977 103.291 90.2805 103.274C90.2633 103.257 90.2429 103.243 90.2204 103.234C90.1979 103.225 90.1738 103.22 90.1495 103.22H85.7034C85.6791 103.22 85.655 103.225 85.6325 103.234C85.61 103.243 85.5896 103.257 85.5724 103.274C85.5552 103.291 85.5416 103.312 85.5323 103.334C85.5229 103.357 85.5181 103.381 85.5182 103.405V104.339H82.7393V103.405C82.7393 103.381 82.7345 103.357 82.7252 103.334C82.7159 103.312 82.7023 103.291 82.6851 103.274C82.6679 103.257 82.6475 103.243 82.625 103.234C82.6025 103.225 82.5784 103.22 82.5541 103.22H78.108C78.0837 103.22 78.0596 103.225 78.0371 103.234C78.0146 103.243 77.9942 103.257 77.977 103.274C77.9598 103.291 77.9461 103.312 77.9368 103.334C77.9275 103.357 77.9227 103.381 77.9227 103.405V104.339H75.1439V103.405C75.1439 103.381 75.1391 103.357 75.1298 103.334C75.1205 103.312 75.1069 103.291 75.0897 103.274C75.0725 103.257 75.052 103.243 75.0296 103.234C75.0071 103.225 74.983 103.22 74.9587 103.22H70.5126C70.4882 103.22 70.4642 103.225 70.4417 103.234C70.4192 103.243 70.3988 103.257 70.3816 103.274C70.3644 103.291 70.3507 103.312 70.3414 103.334C70.3321 103.357 70.3273 103.381 70.3273 103.405V104.339H67.5485V103.405C67.5485 103.381 67.5437 103.357 67.5344 103.334C67.5251 103.312 67.5114 103.291 67.4942 103.274C67.477 103.257 67.4566 103.243 67.4341 103.234C67.4117 103.225 67.3876 103.22 67.3633 103.22H62.9172C62.8928 103.22 62.8687 103.225 62.8463 103.234C62.8238 103.243 62.8034 103.257 62.7862 103.274C62.769 103.291 62.7553 103.312 62.746 103.334C62.7367 103.357 62.7319 103.381 62.7319 103.405V104.339H54.2102C53.6263 104.339 53.0482 104.454 52.5088 104.678C51.9693 104.901 51.4792 105.229 51.0663 105.642C50.6535 106.055 50.326 106.545 50.1026 107.084C49.8791 107.624 49.7641 108.202 49.7641 108.786V110.796C49.7641 111.975 50.2325 113.106 51.0663 113.94C51.9002 114.774 53.031 115.242 54.2102 115.242H202.043C203.222 115.242 204.353 114.774 205.187 113.94C206.021 113.106 206.489 111.975 206.489 110.796V108.786C206.489 108.202 206.374 107.624 206.151 107.084C205.927 106.545 205.6 106.055 205.187 105.642C204.774 105.229 204.284 104.901 203.744 104.678C203.205 104.454 202.627 104.339 202.043 104.339Z" fill="#3F3D56"/>
<path d="M169.406 83.6289H80.7657V84.1549H169.406V83.6289Z" fill="#00BAFC"/>
<path d="M87.0783 83.3659H65.2471C65.9457 75.1392 65.9457 66.868 65.2471 58.6413H87.0783C85.8763 67.1093 85.806 75.3641 87.0783 83.3659Z" fill="#D0CDE1"/>
<path d="M84.185 63.6388H68.4034V64.691H84.185V63.6388Z" fill="#3F3D56"/>
<path d="M84.185 67.0582H68.4034V68.1103H84.185V67.0582Z" fill="#3F3D56"/>
<path d="M84.185 70.4775H68.4034V71.5296H84.185V70.4775Z" fill="#3F3D56"/>
<path d="M84.185 73.8969H68.4034V74.949H84.185V73.8969Z" fill="#3F3D56"/>
<path d="M84.185 77.3162H68.4034V78.3683H84.185V77.3162Z" fill="#3F3D56"/>
<path d="M29.0661 0.843624C29.0661 0.843624 25.636 -0.38144 23.4309 4.51881C21.2257 9.41906 17.7956 14.8093 17.7956 14.8093L19.7557 15.2994C19.7557 15.2994 20.2457 11.8692 21.4708 11.3792L20.9807 15.7894C20.9807 15.7894 35.6815 20.9346 42.2968 15.2994L42.0518 13.5843C42.0518 13.5843 43.0318 13.8293 43.0318 15.2994L43.7669 14.5643C43.7669 14.5643 43.0318 13.0942 40.8267 11.1341C39.3794 9.84762 38.882 7.40003 38.7111 5.86975C38.5831 4.59195 38.0718 3.38268 37.2444 2.40053C35.779 0.702209 33.1088 -1.10286 29.0661 0.843624Z" fill="#2F2E41"/>
<path d="M19.1739 108.929L20.226 114.979L24.4345 114.189L25.2235 108.929H19.1739Z" fill="#FFB9B9"/>
<path d="M25.2235 112.348L19.4369 112.874L19.6999 117.609L19.4369 123.658C19.4369 123.658 16.0175 130.497 21.0151 129.971C26.0126 129.445 25.4865 126.815 25.4865 126.815L26.8016 125.237L26.0126 121.291L25.2235 112.348Z" fill="#2F2E41"/>
<path d="M42.8463 108.929L41.7942 114.979L37.5858 114.189L36.7967 108.929H42.8463Z" fill="#FFB9B9"/>
<path d="M36.7967 112.348L42.5833 112.874L42.3202 117.609L42.5833 123.658C42.5833 123.658 46.0026 130.497 41.0051 129.971C36.0076 129.445 36.5337 126.815 36.5337 126.815L35.2185 125.237L36.0076 121.291L36.7967 112.348Z" fill="#2F2E41"/>
<path d="M30.7471 17.1326C34.0882 17.1326 36.7967 14.4241 36.7967 11.083C36.7967 7.74185 34.0882 5.03334 30.7471 5.03334C27.406 5.03334 24.6975 7.74185 24.6975 11.083C24.6975 14.4241 27.406 17.1326 30.7471 17.1326Z" fill="#FFB9B9"/>
<path d="M26.8017 14.2393L27.5907 23.7082L34.9555 23.4452C34.9555 23.4452 32.8513 17.3956 34.1664 15.0284L26.8017 14.2393Z" fill="#FFB9B9"/>
<path d="M31.0101 21.8671L34.0396 19.9776L37.3228 21.604L42.5833 23.9713L40.7421 46.3286C40.7421 46.3286 44.9505 60.269 44.1615 67.1077C43.3724 73.9464 52.8413 108.14 45.2136 109.718C37.5858 111.296 32.0622 112.874 31.7992 110.244C31.5362 107.614 31.0101 67.3707 31.0101 67.3707C31.0101 67.3707 30.221 109.981 27.0647 110.507C23.9084 111.033 10.231 113.137 11.2831 109.981C12.3352 106.825 19.4369 51.5891 22.8563 48.4328L23.3823 45.8025L18.9109 24.4973L27.3078 20.3124L31.0101 21.8671Z" fill="#2F2E41"/>
<path d="M15.2284 54.4824L14.9654 65.2665C14.9654 65.2665 12.4335 75.9135 16.7243 75.8506C21.015 75.7876 17.8587 65.2665 17.8587 65.2665L19.6999 54.7454L15.2284 54.4824Z" fill="#FFB9B9"/>
<path d="M55.0015 43.1641L62.3935 51.0206C62.3935 51.0206 71.3838 57.261 68.146 60.0773C64.9083 62.8935 60.2386 52.9513 60.2386 52.9513L51.8467 46.3437L55.0015 43.1641Z" fill="#FFB9B9"/>
<path d="M22.9878 47.7751L41.0025 47.2228L40.7684 45.9997V45.9944L23.356 45.6788L22.9878 47.7751Z" fill="#D0CDE1"/>
<path d="M26.6702 48.3013C27.5418 48.3013 28.2483 47.5947 28.2483 46.7231C28.2483 45.8515 27.5418 45.1449 26.6702 45.1449C25.7986 45.1449 25.092 45.8515 25.092 46.7231C25.092 47.5947 25.7986 48.3013 26.6702 48.3013Z" fill="#2F2E41"/>
<path d="M21.0151 24.7604L19.3054 24.3658C19.3054 24.3658 17.0697 25.2864 16.5436 28.1797C16.0175 31.073 9.17885 53.6933 12.5982 55.0085C16.0175 56.3236 21.0151 56.8496 21.0151 56.3236C21.0151 55.7975 23.1193 36.0705 23.1193 36.0705L21.0151 24.7604Z" fill="#2F2E41"/>
<path d="M37.1032 25.763L42.5833 23.9713C42.5833 23.9713 45.2135 23.9713 45.2135 26.8646C45.2135 28.0581 50.2545 37.8622 50.2545 37.8622C50.2545 37.8622 62.3668 46.4961 60.5126 46.8051C57.3563 47.3312 55.5151 52.8547 55.5151 52.8547L43.6789 42.3336L37.1032 25.763Z" fill="#2F2E41"/>
<path d="M23.3688 11.5335C23.3688 11.5335 25.3289 8.83834 27.044 8.34832C28.7591 7.85829 29.0041 5.40817 29.0041 5.40817C29.0041 5.40817 33.4143 10.3084 36.1095 10.5534C38.8046 10.7984 36.3545 4.67312 36.3545 4.67312L31.4542 3.44806L26.799 3.93808L23.1238 6.3882L23.3688 11.5335Z" fill="#2F2E41"/>
<path d="M24.829 11.346C25.2648 11.346 25.6181 10.816 25.6181 10.1624C25.6181 9.50865 25.2648 8.97873 24.829 8.97873C24.3932 8.97873 24.0399 9.50865 24.0399 10.1624C24.0399 10.816 24.3932 11.346 24.829 11.346Z" fill="#FFB9B9"/>
</g>
<defs>
<clipPath id="clip0">
<rect width="222.126" height="130" fill="white" transform="translate(0.93692)"/>
</clipPath>
</defs>
</svg>

<svg width="224" height="130" fill="none" xmlns="http://www.w3.org/2000/svg"><g clip-path="url(#clip0)"><path d="M13.455 121.797a1.258 1.258 0 00-.74.26c-.632-1.668-1.61-2.741-2.708-2.741s-2.075 1.073-2.707 2.741a1.258 1.258 0 00-.74-.26c-1.248 0-2.26 2.11-2.26 4.712h11.414c0-2.602-1.012-4.712-2.26-4.712z" fill="#00BAFC"/><path d="M58.803 126.246H.937v.526h57.866v-.526z" fill="#3F3D56"/><path d="M219.142 110.743a1.26 1.26 0 00-.741.26c-.631-1.668-1.609-2.74-2.707-2.74-1.098 0-2.075 1.072-2.707 2.74a1.255 1.255 0 00-.74-.26c-1.248 0-2.259 2.11-2.259 4.712h11.413c0-2.602-1.012-4.712-2.259-4.712z" fill="#00BAFC"/><path d="M194.585 24.16h-55.102v-1.136h-24.985v1.136H59.17a3.727 3.727 0 00-3.727 3.727v75.451a3.727 3.727 0 003.727 3.727h135.415a3.727 3.727 0 003.727-3.727v-75.45a3.715 3.715 0 00-1.092-2.636 3.727 3.727 0 00-2.635-1.092z" fill="#3F3D56"/><path opacity=".2" d="M193.314 30.746H60.441v74.957h132.873V30.746z" fill="#000"/><path d="M126.764 28.703a1.363 1.363 0 100-2.727 1.363 1.363 0 000 2.727z" fill="#00BAFC"/><path d="M223.063 114.929H30.265v.526h192.798v-.526z" fill="#3F3D56"/><path d="M145.032 58.751v-5.545a6.803 6.803 0 00-6.805-6.805h-5.545c0-.748-2.406-1.362-5.463-1.42v-6.687a3.803 3.803 0 003.318-4.008 3.802 3.802 0 00-7.585 0 3.8 3.8 0 003.317 4.008v6.687c-3.056.058-5.462.672-5.462 1.42h-6.496a6.808 6.808 0 00-6.286 4.2 6.803 6.803 0 00-.518 2.605v5.545c-.787 0-1.425 2.658-1.425 5.938 0 3.279.638 5.937 1.425 5.937v6.496a6.803 6.803 0 006.804 6.804h23.916a6.8 6.8 0 006.287-4.2c.342-.826.518-1.71.518-2.604v-6.496c.787 0 1.425-2.658 1.425-5.937 0-3.28-.638-5.938-1.425-5.938z" fill="#00BAFC"/><path d="M115.674 48.539h21.191a6.027 6.027 0 016.029 6.029v21.191a6.028 6.028 0 01-6.029 6.03h-21.191a6.031 6.031 0 01-6.029-6.03V54.568a6.03 6.03 0 016.029-6.03z" fill="#3F3D56"/><path d="M118.669 64.332a4.279 4.279 0 01-4.275-4.275.24.24 0 01.238-.237.238.238 0 01.237.237 3.803 3.803 0 003.8 3.8 3.799 3.799 0 003.8-3.8.236.236 0 11.475 0 4.28 4.28 0 01-4.275 4.275zM126.269 72.407a3.331 3.331 0 01-3.325-3.325.236.236 0 11.475 0 2.852 2.852 0 004.866 2.015c.534-.534.834-1.259.834-2.015a.236.236 0 11.475 0 3.326 3.326 0 01-3.325 3.325zM133.869 64.332a4.279 4.279 0 01-4.275-4.275.236.236 0 11.475 0 3.803 3.803 0 003.8 3.8 3.799 3.799 0 003.8-3.8.236.236 0 11.475 0 4.28 4.28 0 01-4.275 4.275z" fill="#00BAFC"/><path d="M118.669 62.432a2.138 2.138 0 100-4.275 2.138 2.138 0 000 4.275zM133.869 62.432a2.138 2.138 0 100-4.275 2.138 2.138 0 000 4.275zM126.269 71.22c1.05 0 1.9-.426 1.9-.95 0-.525-.85-.95-1.9-.95-1.049 0-1.9.425-1.9.95 0 .524.851.95 1.9.95z" fill="#00BAFC"/><path d="M202.043 104.339h-12.968v-.934a.186.186 0 00-.185-.185h-4.446a.187.187 0 00-.131.054.186.186 0 00-.054.131v.934h-2.779v-.934a.195.195 0 00-.014-.071.189.189 0 00-.172-.114h-4.446a.186.186 0 00-.185.185v.934h-2.779v-.934a.186.186 0 00-.185-.185h-4.446a.186.186 0 00-.185.185v.934h-2.779v-.934a.186.186 0 00-.185-.185h-4.446a.187.187 0 00-.172.114.195.195 0 00-.014.071v.934h-2.779v-.934a.186.186 0 00-.185-.185h-4.446a.186.186 0 00-.185.185v.934h-2.779v-.934a.186.186 0 00-.185-.185h-4.446a.187.187 0 00-.131.054.186.186 0 00-.055.131v.934h-2.778v-.934a.195.195 0 00-.014-.071.189.189 0 00-.172-.114H108.49a.187.187 0 00-.172.114.195.195 0 00-.014.071v.934h-2.778v-.934a.195.195 0 00-.014-.071.189.189 0 00-.172-.114h-4.446a.186.186 0 00-.185.185v.934H97.93v-.934a.19.19 0 00-.054-.131.183.183 0 00-.131-.054h-4.446a.191.191 0 00-.131.054.187.187 0 00-.054.131v.934h-2.78v-.934a.187.187 0 00-.053-.131.183.183 0 00-.132-.054h-4.446a.191.191 0 00-.13.054.187.187 0 00-.055.131v.934H82.74v-.934a.19.19 0 00-.054-.131.183.183 0 00-.13-.054h-4.447a.191.191 0 00-.131.054.188.188 0 00-.054.131v.934h-2.78v-.934a.19.19 0 00-.053-.131.184.184 0 00-.131-.054h-4.446a.191.191 0 00-.131.054.188.188 0 00-.055.131v.934H67.55v-.934a.19.19 0 00-.055-.131.183.183 0 00-.13-.054h-4.447a.19.19 0 00-.13.054.188.188 0 00-.055.131v.934H54.21a4.436 4.436 0 00-3.144 1.303 4.45 4.45 0 00-1.302 3.144v2.01a4.447 4.447 0 004.446 4.446h147.833a4.446 4.446 0 004.446-4.446v-2.01c0-.584-.115-1.162-.338-1.702a4.458 4.458 0 00-2.407-2.406 4.432 4.432 0 00-1.701-.339z" fill="#3F3D56"/><path d="M169.406 83.629h-88.64v.526h88.64v-.526z" fill="#00BAFC"/><path d="M87.078 83.366h-21.83c.698-8.227.698-16.498 0-24.725h21.83c-1.202 8.468-1.272 16.723 0 24.725z" fill="#D0CDE1"/><path d="M84.185 63.639H68.403v1.052h15.782v-1.052zM84.185 67.058H68.403v1.052h15.782v-1.052zM84.185 70.478H68.403v1.052h15.782v-1.052zM84.185 73.897H68.403v1.052h15.782v-1.052zM84.185 77.316H68.403v1.052h15.782v-1.052z" fill="#3F3D56"/><path d="M29.066.844s-3.43-1.225-5.635 3.675c-2.205 4.9-5.635 10.29-5.635 10.29l1.96.49s.49-3.43 1.715-3.92l-.49 4.41s14.7 5.146 21.316-.49l-.245-1.715s.98.245.98 1.715l.735-.735s-.735-1.47-2.94-3.43C39.379 9.848 38.882 7.4 38.71 5.87a6.37 6.37 0 00-1.467-3.47C35.78.703 33.11-1.102 29.066.845z" fill="#2F2E41"/><path d="M19.174 108.929l1.052 6.05 4.209-.79.789-5.26h-6.05z" fill="#FFB9B9"/><path d="M25.224 112.348l-5.787.526.263 4.735-.263 6.049s-3.42 6.839 1.578 6.313c4.998-.526 4.471-3.156 4.471-3.156l1.316-1.578-.79-3.946-.788-8.943z" fill="#2F2E41"/><path d="M42.846 108.929l-1.052 6.05-4.208-.79-.79-5.26h6.05z" fill="#FFB9B9"/><path d="M36.797 112.348l5.786.526-.263 4.735.263 6.049s3.42 6.839-1.578 6.313c-4.997-.526-4.471-3.156-4.471-3.156l-1.316-1.578.79-3.946.789-8.943z" fill="#2F2E41"/><path d="M30.747 17.133a6.05 6.05 0 100-12.1 6.05 6.05 0 000 12.1z" fill="#FFB9B9"/><path d="M26.802 14.24l.789 9.468 7.364-.263s-2.104-6.05-.789-8.417l-7.364-.789z" fill="#FFB9B9"/><path d="M31.01 21.867l3.03-1.89 3.283 1.627 5.26 2.367-1.84 22.358s4.207 13.94 3.418 20.779c-.789 6.838 8.68 41.032 1.053 42.61-7.628 1.578-13.152 3.156-13.415.526-.263-2.63-.789-42.873-.789-42.873s-.789 42.61-3.945 43.136c-3.157.526-16.834 2.63-15.782-.526 1.052-3.156 8.154-58.392 11.573-61.548l.526-2.63-4.471-21.306 8.397-4.185 3.702 1.555z" fill="#2F2E41"/><path d="M15.228 54.482l-.263 10.784s-2.531 10.647 1.76 10.585c4.29-.063 1.134-10.585 1.134-10.585l1.84-10.52-4.47-.264zM55.002 43.164l7.392 7.857s8.99 6.24 5.752 9.056c-3.238 2.817-7.907-7.126-7.907-7.126l-8.392-6.607L55 43.164z" fill="#FFB9B9"/><path d="M22.988 47.775l18.014-.552L40.768 46v-.006l-17.412-.315-.368 2.096z" fill="#D0CDE1"/><path d="M26.67 48.301a1.578 1.578 0 100-3.156 1.578 1.578 0 000 3.156zM21.015 24.76l-1.71-.394s-2.235.92-2.761 3.814c-.527 2.893-7.365 25.513-3.946 26.828 3.42 1.316 8.417 1.842 8.417 1.316S23.12 36.07 23.12 36.07l-2.104-11.31zM37.103 25.763l5.48-1.792s2.63 0 2.63 2.894c0 1.193 5.041 10.997 5.041 10.997s12.113 8.634 10.259 8.943c-3.157.526-4.998 6.05-4.998 6.05L43.68 42.334l-6.576-16.571zM23.369 11.534s1.96-2.696 3.675-3.186c1.715-.49 1.96-2.94 1.96-2.94s4.41 4.9 7.105 5.145c2.696.245.245-5.88.245-5.88l-4.9-1.225-4.655.49-3.675 2.45.245 5.146z" fill="#2F2E41"/><path d="M24.829 11.346c.436 0 .79-.53.79-1.184 0-.653-.354-1.183-.79-1.183-.436 0-.79.53-.79 1.183 0 .654.354 1.184.79 1.184z" fill="#FFB9B9"/></g><defs><clipPath id="clip0"><path fill="#fff" transform="translate(.937)" d="M0 0h222.126v130H0z"/></clipPath></defs></svg>
